icons/outline/photo-cog.svg

<!--
category: Media
tags: [gear, settings, preference, configure, tool, mechanism, adjust, tune, photo, visual]
version: "2.10"
unicode: "f992"
-->
<svg
  xmlns="http://www.w3.org/2000/svg"
  width="24"
  height="24"
  viewBox="0 0 24 24"
  fill="none"
  stroke="currentColor"
  stroke-width="2"
  stroke-linecap="round"
  stroke-linejoin="round"
>
  <path d="M15 8h.01m-3.01 13h-6a3 3 0 0 1 -3 -3v-12a3 3 0 0 1 3 -3h12a3 3 0 0 1 3 3v6m-18 4l5 -5c.928 -.893 2.072 -.893 3 0l3 3m0 0l1 -1c.48 -.461 1.016 -.684 1.551 -.67m2.45 6.67m-2 0a2 2 0 1 0 4 0a2 2 0 1 0 -4 0m2 -3.5v1.5m0 4v1.5m3.031 -5.25l-1.299 .75m-3.463 2l-1.3 .75m0 -3.5l1.3 .75m3.463 2l1.3 .75" />
</svg>

<!--
category: Media
tags: [gear, settings, preference, configure, tool, mechanism, adjust, tune, photo, visual]
version: "2.10"
unicode: "f992"
-->
<svg
  xmlns="http://www.w3.org/2000/svg"
  width="24"
  height="24"
  viewBox="0 0 24 24"
  fill="none"
  stroke="currentColor"
  stroke-width="2"
  stroke-linecap="round"
  stroke-linejoin="round"
>
    <path d="M15 8h.01M12 21h-6a3 3 0 0 1 -3 -3v-12a3 3 0 0 1 3 -3h12a3 3 0 0 1 3 3v6M3 16l5 -5c.928 -.893 2.072 -.893 3 0l3 3M14 14l1 -1c.48 -.461 1.016 -.684 1.551 -.67M19.001 19m-2 0a2 2 0 1 0 4 0a2 2 0 1 0 -4 0M19.001 15.5v1.5M19.001 21v1.5M22.032 17.25l-1.299 .75M17.27 20l-1.3 .75M15.97 17.25l1.3 .75M20.733 20l1.3 .75" />
</svg>
